src/topics/icons/reapp.svg

<?xml version="1.0" encoding="UTF-8" standalone="no"?>
<svg width="256px" height="338px" viewBox="0 0 256 338" version="1.1" xmlns="http://www.w3.org/2000/svg" xmlns:xlink="http://www.w3.org/1999/xlink" preserveAspectRatio="xMidYMid">
	<g>
		<path d="M63.5120941,0.566211765 C63.5120941,0.566211765 0.228894118,0.566211765 0.228894118,63.8494118 L0.228894118,285.334588 C0.228894118,285.334588 63.5120941,286.599529 63.5120941,223.003106 L63.5120941,111.310808 L63.5120941,98.6533647 L63.5120941,79.6672 C63.5120941,70.9290667 70.5957647,63.8494118 79.3298824,63.8494118 L96.4166275,63.8494118 L126.160816,63.8494118 C187.544596,63.8494118 188.809537,0.566211765 188.809537,0.566211765 L63.5120941,0.566211765 L63.5120941,0.566211765 Z" fill="#27CCF5"></path>
		<path d="M192.026102,114.940988 L192.026102,226.629271 L192.026102,239.286714 L192.026102,258.272878 C192.026102,267.011012 184.942431,274.090667 176.208314,274.090667 L159.121569,274.090667 L129.381396,274.090667 C67.9976157,274.090667 66.7286588,337.373867 66.7286588,337.373867 L192.026102,337.373867 C192.026102,337.373867 255.309302,337.373867 255.309302,274.090667 L255.309302,52.6054902 C255.309302,52.6054902 192.026102,51.340549 192.026102,114.940988 L192.026102,114.940988 Z" fill="#22E071"></path>
	</g>
</svg>

<svg height="338" preserveAspectRatio="xMidYMid" viewBox="0 0 256 338" width="256" xmlns="http://www.w3.org/2000/svg"><path d="m63.5120941.56621177s-63.28319998 0-63.28319998 63.28320003v221.4851762s63.28319998 1.264941 63.28319998-62.331482v-111.692298-12.6574433-18.9861647c0-8.7381333 7.0836706-15.8177882 15.8177883-15.8177882h17.0867451 29.7441885c61.38378 0 62.648721-63.28320003 62.648721-63.28320003z" fill="#27ccf5"/><path d="m192.026102 114.940988v111.688283 12.657443 18.986164c0 8.738134-7.083671 15.817789-15.817788 15.817789h-17.086745-29.740173c-61.3837803 0-62.6527372 63.2832-62.6527372 63.2832h125.2974432s63.2832 0 63.2832-63.2832v-221.4851768s-63.2832-1.2649412-63.2832 62.3354978z" fill="#22e071"/></svg>
